X:1
T:Make Him Known
T:Charles Hutchinson Gabriel
T:Make Him Known
T:Public Domain
T:Public Domain
C:Charles Hutchinson Gabriel
Z:Public Domain
%%score ( 1 2 ) ( 3 4 )
L:1/8
M:4/4
K:Bb
V:1 treble 
V:2 treble 
V:3 bass 
V:4 bass 
V:1
 [DF]3 [EG] [DF]2 [B,D]2 | [DF]2 [Fd]2 [Fd]4 | [Fd]2 [Ec]2 [Ec]4 | [Ec]2 [DB]2 [DB]4 | %4
w: 1.~Tell of Christ Who|saves from sin;|Make Him known—|make Him known!|
w: 2.~For the world God|gave His Son,|Make Him known—|make Him known!|
w: 3.~All the lost ones|Christ has sought,|Make Him known—|make Him known!|
w: 4.~Go ye forth to|all the world,|Make Him known—|make Him known!|
w: 5.~Souls are grop- ing|in the night,|Make Him known—|make Him known!|
 [DF]3 [EG] [DF]2 [B,D]2 | [DF]2 [Fd]2 [Fd]4 | [Fd]4 [Ec]4 | [DB]6 z2 || %8
w: He has called you|souls to win,|Make Him|known!|
w: With the mes- sage|quick- ly run,|Make Him|known!|
w: Great sal- va- tion|He hath wrought,|Make Him|known!|
w: Let His ba- ner|be un- furled—|Make Him|known!|
w: Je- sus is the|world’s true Light,|Make Him|known!|
"^Refrain" [GB]3 [Ge] [Ge]2 [EG]2 | [DF]2 [Fd]2 [Fd]4 | [Fc]3 [Fd] [=Ec]2 [Ed]2 | %11
w: |||
w: |||
w: Make the bless- èd|Sav- ior known,|Till all hearts shall|
w: |||
w: |||
 [=Ec]2 [Ed]2 [Fc]4 | [Fd]3 [Fd] [Fd]2 [DB]2 | [Ge]2 [Ge]2 [Fd]4 | (F2 F2) (E2 E2) | [DB]6 z2 |] %16
w: |||||
w: |||||
w: be His throne;|Till He rules the|world a- lone,|Make * Him *||
w: |||||
w: |||||
V:2
 x8 | x8 | x8 | x8 | x8 | x8 | x8 | x8 || x8 | x8 | x8 | x8 | x8 | x8 | d4 c4 | x8 |] %16
w: ||||||||||||||||
w: ||||||||||||||||
w: ||||||||||||||known. *||
V:3
 [B,,B,]3 [B,,B,] [B,,B,]2 [B,,F,]2 | [B,,B,]2 [B,,B,]2 [B,,B,]4 | [F,B,]2 [F,A,]2 [F,A,]4 | %3
w: ~ ~ ~ ~|~ ~ ~|~ ~ ~|
 [B,,B,]2 [B,,F,]2 [B,,F,]4 | [B,,B,]3 [B,,B,] [B,,B,]2 [B,,F,]2 | [B,,B,]2 [B,,B,]2 [B,,B,]4 | %6
w: ~ ~ ~|~ ~ ~ ~|~ ~ ~|
 [F,B,]4 [F,A,]4 | [B,,B,]6 z2 || [E,B,]3 [E,B,] [E,B,]2 [E,B,]2 | [B,,B,]2 [B,,B,]2 [B,,B,]4 | %10
w: ~ ~|~|~ ~ ~ ~|~ ~ ~|
 [F,A,]3 [F,B,] [G,B,]2 [G,B,]2 | [C,B,]2 [C,B,]2 [F,A,]4 | [B,,B,]3 [B,,B,] [B,,B,]2 B,2 | %13
w: ~ ~ ~ ~|~ ~ ~|~ ~ ~ ~|
 (E,F,)(G,A,) B,4 | [F,B,]2 [F,B,]2 [F,A,]2 [F,A,]2 | [B,,B,]6 z2 |] %16
w: ~ * ~ * Make|known. * * *||
V:4
 x8 | x8 | x8 | x8 | x8 | x8 | x8 | x8 || x8 | x8 | x8 | x8 | x6 B,2 | B,2 B,2 B,4 | x8 | x8 |] %16
w: ||||||||||||~|Him, make Him|||

